modules/feathericon/icons/import.svg

<?xml version="1.0" encoding="UTF-8"?>
<svg width="12px" height="14px" viewBox="0 0 12 14" version="1.1" xmlns="http://www.w3.org/2000/svg" xmlns:xlink="http://www.w3.org/1999/xlink">
    <!-- Generator: sketchtool 48.1 (47250) - http://www.bohemiancoding.com/sketch -->
    <title>import</title>
    <desc>Created with sketchtool.</desc>
    <defs></defs>
    <g id="web-app" stroke="none" stroke-width="1" fill="none" fill-rule="evenodd">
        <g id="import" fill="#000000" fill-rule="nonzero">
            <path d="M5,0 L7,0 L7,9 L8,8 L9,9 L6,12 L3,9 L4,8 L5,9 L5,0 Z M0,6.00247329 C0,5.44882258 0.455760956,5 1.00247329,5 L3,5 L3,6.00247329 L1.00247329,6.00247329 L1.00247329,13 L11,13 L11,6.00247329 L9,6.00247329 L9,5 L10.9975267,5 C11.5511774,5 12,5.45576096 12,6.00247329 L12,12.9975267 C12,13.5511774 11.544239,14 10.9975267,14 L1.00247329,14 C0.448822582,14 0,13.544239 0,12.9975267 L0,6.00247329 Z" id="Shape"></path>
        </g>
    </g>
</svg>

<svg width="12" height="14" xmlns="http://www.w3.org/2000/svg"><path d="M5 0h2v9l1-1 1 1-3 3-3-3 1-1 1 1V0zM0 6.002C0 5.45.456 5 1.002 5H3v1.002H1.002V13H11V6.002H9V5h1.998C11.55 5 12 5.456 12 6.002v6.996C12 13.55 11.544 14 10.998 14H1.002A1.007 1.007 0 0 1 0 12.998V6.002z" fill="#000" fill-rule="nonzero"/></svg>
